localPackages/DesignSystem/Sources/DesignSystem/Resources/Assets.xcassets/IconSet/ic-brand-twitter.imageset/ic-brand-twitter.svg

<svg width="24" height="24" viewBox="0 0 24 24" fill="none" xmlns="http://www.w3.org/2000/svg">
<g id="ic-brand-twitter">
<path id="Icon" d="M22.5 5.48511C21.7273 5.82778 20.897 6.05937 20.0255 6.16353C20.915 5.63029 21.5981 4.78596 21.9198 3.77993C21.0874 4.27361 20.1653 4.63218 19.184 4.82544C18.398 3.9881 17.2783 3.46484 16.0392 3.46484C13.6597 3.46484 11.7306 5.39386 11.7306 7.77315C11.7306 8.11082 11.7688 8.43966 11.8422 8.75498C8.26149 8.57531 5.08688 6.86007 2.96191 4.25349C2.59106 4.88981 2.37859 5.6299 2.37859 6.41947C2.37859 7.91418 3.13927 9.23291 4.29531 10.0055C3.58902 9.98315 2.92473 9.78935 2.34379 9.46665C2.34349 9.48463 2.34349 9.50268 2.34349 9.52081C2.34349 11.6083 3.8286 13.3496 5.79955 13.7454C5.43799 13.8439 5.05738 13.8965 4.6644 13.8965C4.3868 13.8965 4.11688 13.8695 3.85387 13.8192C4.40208 15.5309 5.9932 16.7765 7.8785 16.8113C6.40399 17.9668 4.54626 18.6556 2.52776 18.6556C2.18003 18.6556 1.83706 18.6352 1.5 18.5955C3.40666 19.8179 5.67135 20.5311 8.10441 20.5311C16.0291 20.5311 20.3626 13.9661 20.3626 8.27275C20.3626 8.08593 20.3584 7.90012 20.3501 7.71539C21.1919 7.10795 21.9224 6.34911 22.5 5.48511Z" fill="#0F0F0F"/>
</g>
</svg>

<svg xmlns="http://www.w3.org/2000/svg" width="24" height="24" viewBox="0 0 24 24">
  <g class="ic-brand-twitter">
    <path d="M22.5 5.485a8.615 8.615 0 0 1-2.474.679A4.322 4.322 0 0 0 21.92 3.78a8.628 8.628 0 0 1-2.736 1.045 4.309 4.309 0 0 0-7.342 3.93 12.232 12.232 0 0 1-8.88-4.502 4.288 4.288 0 0 0-.583 2.166c0 1.495.76 2.814 1.916 3.587a4.291 4.291 0 0 1-1.951-.54v.055A4.311 4.311 0 0 0 5.8 13.745a4.313 4.313 0 0 1-1.946.074 4.313 4.313 0 0 0 4.024 2.992 8.645 8.645 0 0 1-5.35 1.845c-.348 0-.69-.02-1.028-.06a12.195 12.195 0 0 0 6.604 1.935c7.925 0 12.259-6.565 12.259-12.258 0-.187-.005-.373-.013-.558a8.755 8.755 0 0 0 2.15-2.23Z" class="Icon"/>
  </g>
</svg>
